X: 34791
T: Road To Skye, The
R: jig
M: 6/8
K: Amajor
|:GFG DBD|GBd e2d|gdB BAB|cBc E2F|
GFG DBD|GBd e2d|gdB BAB|cEF G3:|
|:GBd GBd|GBd cBA|GBd efg|fd^c def|
geg fdf|ece dcB|cBc Adc|BGF G3:|

